X:400
T:Four Provinces Flings #1
T:First of May, The
S:Moloney/O'Donnell/Egan
Z:Nigel Gatherer
M:4/4
L:1/8
K:Ador
z     | E>AA>B c3 B | Adde f2 ef | gfec dfec | dcAF  G3 F |
        E>AA>B c3 B | Adde f2 ef | gfec dedc | A2 AG A2  :|
(3efg | a2 af g2 ge | f2 fd e3 f | gfec dfec | dcAF  G3 F |
        E>AA>B c3 B | Adde f2 ef | gfec dedc | A2 AG A2  :|
